imgs/DenmarkFlag.svg

<svg width="25" height="18" viewBox="0 0 25 18" fill="none" xmlns="http://www.w3.org/2000/svg">
<path d="M0.0078125 0H24.0078V18H0.0078125V0Z" fill="#C8102E"/>
<path d="M7.72168 0H10.2938V18H7.72168V0Z" fill="white"/>
<path d="M0.0078125 7.71375H24.0078V10.2862H0.0078125V7.71375Z" fill="white"/>
</svg>

<svg width="25" height="18" fill="none" xmlns="http://www.w3.org/2000/svg"><path d="M.008 0h24v18h-24V0z" fill="#C8102E"/><path d="M7.722 0h2.572v18H7.722V0z" fill="#fff"/><path d="M.008 7.714h24v2.572h-24V7.714z" fill="#fff"/></svg>
